src/svgs/alert.svg

<?xml version="1.0" encoding="UTF-8" standalone="no"?>
<!-- Created with Inkscape (http://www.inkscape.org/) -->

<svg
   xmlns:dc="http://purl.org/dc/elements/1.1/"
   xmlns:cc="http://creativecommons.org/ns#"
   xmlns:rdf="http://www.w3.org/1999/02/22-rdf-syntax-ns#"
   xmlns:svg="http://www.w3.org/2000/svg"
   xmlns="http://www.w3.org/2000/svg"
   xmlns:sodipodi="http://sodipodi.sourceforge.net/DTD/sodipodi-0.dtd"
   xmlns:inkscape="http://www.inkscape.org/namespaces/inkscape"
   width="20"
   height="20"
   id="svg5738"
   version="1.1"
   inkscape:version="0.48.5 r10040"
   sodipodi:docname="alert.svg">
  <defs
     id="defs5740" />
  <sodipodi:namedview
     id="base"
     pagecolor="#ffffff"
     bordercolor="#666666"
     borderopacity="1.0"
     inkscape:pageopacity="0.0"
     inkscape:pageshadow="2"
     inkscape:zoom="1"
     inkscape:cx="4.4819015"
     inkscape:cy="14.761384"
     inkscape:document-units="px"
     inkscape:current-layer="layer1"
     showgrid="false"
     inkscape:window-width="1033"
     inkscape:window-height="844"
     inkscape:window-x="20"
     inkscape:window-y="20"
     inkscape:window-maximized="0">
    <inkscape:grid
       type="xygrid"
       id="grid5746"
       empspacing="5"
       visible="true"
       enabled="true"
       snapvisiblegridlinesonly="true" />
  </sodipodi:namedview>
  <metadata
     id="metadata5743">
    <rdf:RDF>
      <cc:Work
         rdf:about="">
        <dc:format>image/svg+xml</dc:format>
        <dc:type
           rdf:resource="http://purl.org/dc/dcmitype/StillImage" />
        <dc:title />
      </cc:Work>
    </rdf:RDF>
  </metadata>
  <g
     inkscape:label="Layer 1"
     inkscape:groupmode="layer"
     id="layer1"
     transform="translate(0,-1032.3622)">
    <path
       style="color:#000000;fill:#000000;fill-opacity:1;fill-rule:nonzero;stroke:none;stroke-width:1;marker:none;visibility:visible;display:inline;overflow:visible;enable-background:accumulate"
       d="M 10 3 C 9.3948 3 8.7896 3.26615 8.5 3.78125 L 4.1875 13 C 3.7229 13.8263 4.1985 15 5.3125 15 L 10 15 L 14.6875 15 C 15.8016 15 16.2771 13.8263 15.8125 13 L 11.5 3.78125 C 11.2104 3.26615 10.6052 3 10 3 z M 10 6 C 10.554 6 11 6.446 11 7 L 11 9 C 11 9.554 10.554 10 10 10 C 9.446 10 9 9.554 9 9 L 9 7 C 9 6.446 9.446 6 10 6 z M 10 11 C 10.552285 11 11 11.447715 11 12 C 11 12.552285 10.552285 13 10 13 C 9.4477153 13 9 12.552285 9 12 C 9 11.447715 9.4477153 11 10 11 z "
       transform="translate(0,1032.3622)"
       id="path12850" />
  </g>
</svg>

<?xml version="1.0" encoding="UTF-8" standalone="yes"?>
<svg viewBox="0 0 20 20">
  <path d="M10,3C9.4,3,8.8,3.3,8.5,3.8L4.2,13c-0.5,0.8,0,2,1.1,2H10h4.7c1.1,0,1.6-1.2,1.1-2l-4.3-9.2C11.2,3.3,10.6,3,10,3z M10,6
	c0.6,0,1,0.4,1,1v2c0,0.6-0.4,1-1,1S9,9.6,9,9V7C9,6.4,9.4,6,10,6z M10,11c0.6,0,1,0.4,1,1s-0.4,1-1,1c-0.6,0-1-0.4-1-1
	S9.4,11,10,11z"/>
</svg>
